packages/foundations/assets/icons/functional/images/arrows/chevron_down_28.svg

<svg width="28" height="28" viewBox="0 0 28 28" fill="none" xmlns="http://www.w3.org/2000/svg">
<g clip-path="url(#clip0_77_496)">
<path fill-rule="evenodd" clip-rule="evenodd" d="M21 9.625C21.492 9.625 21.875 9.98 21.875 10.5C21.8715 10.7325 21.7842 10.9559 21.629 11.129L14.629 18.129C14.4559 18.2842 14.2325 18.3715 14 18.375C13.7675 18.3716 13.5441 18.2842 13.371 18.129L6.371 11.129C6.21583 10.9559 6.12847 10.7325 6.125 10.5C6.125 10.281 6.207 10.063 6.371 9.871C6.54435 9.71553 6.76816 9.62814 7.001 9.625C7.219 9.625 7.438 9.707 7.629 9.871L14 16.269L20.37 9.871C20.5434 9.71561 20.7672 9.62823 21 9.625Z" fill="#1A1C1F"/>
</g>
<defs>
<clipPath id="clip0_77_496">
<rect width="28" height="28" fill="white"/>
</clipPath>
</defs>
</svg>

<svg xmlns="http://www.w3.org/2000/svg" width="28" height="28" fill="none"><g clip-path="url(#a)"><path fill="#1A1C1F" fill-rule="evenodd" d="M21 9.625c.492 0 .875.355.875.875a.96.96 0 0 1-.246.629l-7 7a.96.96 0 0 1-.629.246.96.96 0 0 1-.629-.246l-7-7a.96.96 0 0 1-.246-.629c0-.219.082-.437.246-.629a.96.96 0 0 1 .63-.246c.218 0 .437.082.628.246L14 16.269l6.37-6.398a.96.96 0 0 1 .63-.246" clip-rule="evenodd"/></g><defs><clipPath id="a"><path fill="#fff" d="M0 0h28v28H0z"/></clipPath></defs></svg>
